assets/packages/country_icons/icons/flags/svg/nr.svg

<svg xmlns="http://www.w3.org/2000/svg" xmlns:xlink="http://www.w3.org/1999/xlink" viewBox="0 0 600 300">
<rect fill="#002b7f" width="600" height="300"/>
<rect fill="#ffc61e" y="137.5" width="600" height="25"/>
<path fill="#fff" d="M 150,262.5 L 143.5295,236.6481 L 125,255.8012 L 132.3223,230.1777 L 106.6987,237.5 L 125.8519,218.9705 L 100,212.5 L 125.8519,206.0295 L 106.6987,187.5 L 132.3223,194.8223 L 125,169.1988 L 143.5295,188.3519 L 150,162.5 L 156.4705,188.3519 L 175,169.1988 L 167.6777,194.8223 L 193.3013,187.5 L 174.1481,206.0295 L 200,212.5 L 174.1481,218.9705 L 193.3013,237.5 L 167.6777,230.1777 L 175,255.8012 L 156.4705,236.6481 L 150,262.5 z"/>
</svg>

<svg xmlns="http://www.w3.org/2000/svg" viewBox="0 0 600 300"><path fill="#002b7f" d="M0 0h600v300H0z"/><path fill="#ffc61e" d="M0 137.5h600v25H0z"/><path fill="#fff" d="M150 262.5l-6.47-25.852L125 255.801l7.322-25.623L106.7 237.5l19.153-18.53L100 212.5l25.852-6.47-19.153-18.53 25.623 7.322L125 169.2l18.53 19.153L150 162.5l6.47 25.852L175 169.199l-7.322 25.623L193.3 187.5l-19.153 18.53L200 212.5l-25.852 6.47 19.153 18.53-25.623-7.322L175 255.8l-18.53-19.153L150 262.5z"/></svg>
